X:130
T: Elizabeth Kelly's Delight
S: "Ceol Rince na hEireann" 1/68
Z: B.Black
L: 1/8
M: 9/8
R: slip jig
K: Am
A3 ABA AGE|A3 G2E DEG|A3 ABA AGE|G3 G2E DEG :|
c3 BAG A2E|c3 BAG DEG|c3 BAG A2E|G3 G2E DEG :|
